X:31
T:Doctors Commons. JJo8.031
%%VWML:JohnsonVol8-2184-p16-0
F:http://www.vwml.org/record/JohnsonVol8/2184/p16
Z:Transcribed by Simon Furey and Lewis Jones
Z:vmp.Simon Wilson 2013 www.village-music-project.org.uk
Z:Dance added by John Chambers 2017
M:6/8
L:1/8
%Q:3/8=120
K:Bb
|: F |\
B,FB FBd | Bdf dfb | gfe dcB | cdB AGF |\
B,FB FBd | Bdf =egb | agf cf=e | {=e}f3- f2 :|
|: f |\
fdc {c}=B2d | eGF EDC | ecB {B}A2c | dFE DCB, |\
A,CE DFB | FBd Bdf | gab dec | {c}B3- B2 :|
W: Foot it and half Right and Left .|.
W:the same back again .|| Lead thro' the 3d
W:Cu. cast up foot it to your Partner :||.
W:Right and Left at top :||:
W:
T:Virgin's Wish. JJo8.032, The
B:J.Johnson Choice Collection Vol 8 1758
Z:vmp.Simon Wilson 2013 www.village-music-project.org.uk
Z:Dance added by John Chambers 2017
M:6/8
L:1/8
%Q:3/8=120
K:C
|: G |\
c3 ece | g3 e3 | c2e d2c | Bdc BAG |\
c3 ece | g3 e3 | fga dg^f | g3-g2 :|
|: g |\
g3 efg | f3 def | egf edc | Bdc BAG |\
c3 ABc | B3 GAB | cde fdB | c3- c2 :|
W: First and 2d Cu. set and change
W:Places .| set and change back
W:again :| Cross over and turn :||.
W:Right hands and Left :||:
W:
